X:1
T:Scottish ? Virmoux
C:Trad arr. F. Paris
R:Schottische
M:C|
L:1/8
K:G
GdcB d3B|cBcd e2d2|dgdB c2BA|BdBG A4|
GdcB d3B|cBcd e2d2|dgdB c2BA|GdcB G4:|
g2d2 g3f|edef gage|d2G2 d2cB|ABcd edef|
g2d2 g3f|edef gage|d2G2 d2cB|ABcd G4:|
<end>
<start>
